white/gas.svg

<!-- Generated by IcoMoon.io -->
<svg version="1.1" xmlns="http://www.w3.org/2000/svg" width="32" height="32" viewBox="0 0 32 32">
<title>gas</title>
<path fill="#fff" d="M16 32c-8.837 0-16-7.163-16-16s7.163-16 16-16 16 7.163 16 16-7.163 16-16 16zM25 22.58v-12.959l-6.99 2.48v7.22l6.99 3.259zM14.823 26v-12.861l-6.823-3.181v12.862l6.823 3.18zM24.833 9.157l0.061-0.021-6.729-3.136-0.062 0.021-0.261 0.093-9.572 3.396 6.729 3.136 9.833-3.488z"></path>
</svg>

<svg xmlns="http://www.w3.org/2000/svg" width="32" height="32" viewBox="0 0 32 32"><path fill="#FFF" fill-rule="evenodd" d="M16 32C7.163 32 0 24.837 0 16S7.163 0 16 0s16 7.163 16 16-7.163 16-16 16zm9-9.42V9.621l-6.99 2.48v7.22L25 22.58zM14.823 26V13.139L8 9.958V22.82L14.823 26zm10.01-16.843l.061-.021L18.165 6l-.062.021-.177.063-.084.03L8.27 9.51l6.729 3.136 2.843-1.008.167-.06 6.711-2.38.112-.04z"/></svg>
